X:216
T: GUTER HIMMEL ICH MUSS SCHEIDEN
N: E0792A
O: Europa, Mitteleuropa, Deutschland, Hannover
R: Abschieds - Lied, Liebe
M: 4/4
L: 1/8
K: F
 | C2F2D2D2 | B2G2A2F2 |
C2C2D2D2 | B2E2F2z2 |
C2F2D2D2 | B2G2A2F2 |
C2C2D2D2 | B2E2F2z2 |
B3cA2F2 | AGG2A2F2 |
B3cA2F2 | AGG2F2z2

